!!!!SEGMENT: pl-sa--554-a-ix-34--011_pleyel-ignace--allegro.krn
!!!cenid: 18xx:574
!!!COM: Pleyel, Ignace
!!!COM-rismID:
!!!CDT: 1757/06/18-1831/11/14
!!!CNT: French
!!!OTL: Allegro
!!!PDT:
!!!AGN: Secular
!!!SMS-siglum: PL-SA
!!!SMS-shelfmark: 554/A IX 34
!!!SMS-shelfwork: 011 W
!!!SMS-variant:
!!!SMS-altvar:
!!!NIFC-rismSourceID: 1001069901
!!!NIFC-islandoraID:
!!!URL-pdf-islandora:
!!!URL-scan: https://bc.bdsandomierz.pl/dlibra/publication/1310/edition/1278/content @EN{Scan on Cyfrowa Biblioteka Diecezjalna w Sandomierzu} @PL{Skany w portalu Cyfrowa Biblioteka Diecezjalna w Sandomierzu}
!!!ONB-nifc: Str. 8 (s. 5) – str. 9 (s. 1)
!!!AIN: 2 empty
!!!key:
**kern	**dynam	**kern	**dynam
*part2	*part2	*part1	*part1
*staff2	*	*staff1	*
*Iempty	*	*Iempty	*
*I"	*	*I"	*
*I'keyb	*	*I'keyb	*
*clefG2	*	*clefG2	*
*k[]	*	*k[]	*
*C:	*	*C:	*
*M2/4	*	*M2/4	*
=1	=1	=1	=1
*^	*	*	*
*2\righ	*2\right	*	*2\righ	*
!LO:TX:a:t=P:problem=jedno metrum pomiędzy pięcioliniami	!	!	!LO:TX:a:i:t=Allegro&colon;	!
!	!	!	!LO:TX:a:t=P:problem=napis przed akoladą	!
4g/	2c\	.	8ee\L	p
.	.	.	16ff\L	.
.	.	.	16ee\JJ	.
4f/	.	.	8dd\L	.
.	.	.	16ee\L	.
.	.	.	16dd\JJ	.
=2	=2	=2	=2	=2
4e/	4c\	.	4cc\	.
8r	8rcyy	.	8g\L	.
8e/	8c\	.	8cc\J	.
=3	=3	=3	=3	=3
8f/L	2B\	.	8dd\L	.
8g/	.	.	8dd\	.
8f/	.	.	8dd\	.
8g/J	.	.	8dd\J	.
=4	=4	=4	=4	=4
4e/	4c\	.	4gg\	.
*v	*v	*	*	*
8g/	.	8ee\	.
8r	.	8r	.
*clefF4	*	*	*
=5	=5	=5	=5
*^	*	*	*
4G/	2C\	.	8ee\L	f
.	.	.	16ff\L	.
.	.	.	16ee\JJ	.
4F/	.	.	8dd\L	.
.	.	.	16ee\L	.
.	.	.	16dd\JJ	.
*v	*v	*	*	*
=6	=6	=6	=6
4C\ 4E	.	4cc\	.
8r	.	8g\L	.
8E\ 8G	.	8cc\J	.
=7	=7	=7	=7
4F\ 4A	.	8dd\L	.
.	.	8dd\J	.
4G\ 4B	.	8dd'>\L	.
.	.	(>16dd\L	.
.	.	16ee\JJ)	.
=8	=8	=8	=8
4c\	.	4cc\	.
8C/	.	4r	.
8r	.	.	.
=9:|!|:	=9:|!|:	=9:|!|:	=9:|!|:
!	!	!	!LO:DY:b:rj
8d\L 8f	.	8gg\L	p
8G\J	.	8gg\J	.
*rep	*	*	*
8d\L 8f	.	4bb\	.
8G\J	.	.	.
*Xrep	*	*	*
=10	=10	=10	=10
8c\L 8e	.	8gg\L	.
8G\J	.	8gg\J	.
*rep	*	*	*
8c\L 8e	.	4ccc\	.
8G\J	.	.	.
*Xrep	*	*	*
=11	=11	=11	=11
.	.	8qgg/	.
8B\L 8d	.	8ff\L	.
8G\J	.	8ee\	.
*rep	*	*	*
8B\L 8d	.	8ff\	.
8G\J	.	8gg\J	.
*Xrep	*	*	*
=12	=12	=12	=12
8c\L 8e	.	4ee\	.
8G\J	.	.	.
*rep	*	*	*
8c\L 8e	.	8cc\	.
8G\J	.	8r	.
*Xrep	*	*	*
=13	=13	=13	=13
8d\L 8f	.	8gg\L	.
8G\J	.	8gg\J	.
*rep	*	*	*
8d\L 8f	.	4bb\	.
8G\J	.	.	.
*Xrep	*	*	*
=14	=14	=14	=14
8c\L 8e	.	8gg\L	.
8G\J	.	8gg\J	.
*rep	*	*	*
8c\L 8e	.	4ccc\	.
8G\J	.	.	.
*Xrep	*	*	*
=15	=15	=15	=15
.	.	8qgg/	.
8B\L 8d	.	8ff\L	.
8G\J	.	8ee\	.
*rep	*	*	*
8B\L 8d	.	8ff\	.
8G\J	.	8dd\J	.
*Xrep	*	*	*
=16	=16	=16	=16
4c\	.	4cc\	.
8C/	.	4r	.
8r	.	.	.
!LO:CL:ed	!	!	!
*clefG2	*	*	*
!!LO:PB:g=original
=17:|!	=17:|!	=17:|!	=17:|!
*^	*	*	*
4g/	2c\	.	8ee\L	p
.	.	.	16ff\L	.
.	.	.	16ee\JJ	.
4f/	.	.	8dd\L	.
.	.	.	16ee\L	.
.	.	.	16dd\JJ	.
=18	=18	=18	=18	=18
4e/	4c\	.	4cc\	.
8r	8rcyy	.	8g\L	.
8e/	8c\	.	8cc\J	.
=19	=19	=19	=19	=19
8f/L	2B\	.	8dd'>\L	.
8g/	.	.	8dd'>\	.
8f/	.	.	8dd'>\	.
8g/J	.	.	8dd'>\J	.
=20	=20	=20	=20	=20
4e/	4c\	.	4gg\	.
*v	*v	*	*	*
8g/	.	8ee\	.
8r	.	8r	.
=21	=21	=21	=21
*clefF4	*	*	*
*^	*	*	*
!	!	!LO:DY:b:rj	!	!
4G/	2C\	p	8ee\L	.
.	.	.	16ff\L	.
.	.	.	16ee\JJ	.
4F/	.	.	8dd\L	.
.	.	.	16ee\L	.
.	.	.	16dd\JJ	.
=22	=22	=22	=22	=22
4E/	4C\	.	4cc/	.
*v	*v	*	*	*
8r	.	8g\L	.
8E\ 8G	.	8cc\J	.
=23	=23	=23	=23
4F\ 4A	.	8dd'>\L	.
.	.	8dd'>\J	.
4G\ 4B	.	8dd\L	.
.	.	(>16dd\L	.
.	.	16ee\JJ)	.
=24	=24	=24	=24
4C\ 4c	.	4cc\	.
4r	.	8r	.
.	.	8qff#X/	.
.	pp	8gg\	pp
=25	=25	=25	=25
(<(>2G\ 2B 2f	.	8dd\L	.
.	.	8dd\J	.
.	.	8dd\L	.
.	.	16dd\L	.
.	.	16ee\JJ	.
=26	=26	=26	=26
4c\ 4e))	.	4cc\	.
4r	.	8r	.
.	.	8qff#X/	.
.	.	8gg\	.
=27	=27	=27	=27
(<(>2G\ 2B 2f	.	8dd'>\L	.
.	.	8dd'>\J	.
.	.	8dd'>\L	.
.	.	(>16dd\L	.
.	.	16ee\JJ)	.
=28	=28	=28	=28
4c\ 4e))	.	4cc\	.
4r	.	4r	.
=29	=29	=29	=29
4GG/ 4G	.	4dd\ 4gg 4bb	f
4r	.	4r	.
=30	=30	=30	=30
4CC/ 4C	.	4ee\ 4gg 4ccc	.
4r	.	4r	.
==	==	==	==
*-	*-	*-	*-
!!!system-decoration: [(s1,s2)]
!!!RDF**kern: > = above
!!!RDF**kern: < = below
!!!EED: Mateusz Mrugas
!!!EEV: 2020-12-14
!!!ENC: Mateusz Solarz
!!!END: 2020-06-19
